assets/svg/1f4d5.svg

<svg xmlns="http://www.w3.org/2000/svg" viewBox="0 0 64 64" enable-background="new 0 0 64 64"><path fill="#962c2c" d="m54.976 35.15l7.527 7.438-33.29 15.79c0 0-4.406 2.02-6.482-1.203-8.214-12.731 32.25-22.02 32.25-22.02"/><path fill="#d9e3e8" d="m28.371 49.13c0 0-6.373 2.238-5.205 6.468 1.215 4.393 6.281 1.722 6.281 1.722l31.623-14.729c0 0-1.776-4.664 1.434-7.838l-34.13 14.377"/><path fill="#ed4c5c" d="m33.732 5l30.27 29.523-35.789 14.01-22.976-35.874z"/><path fill="#fff" d="m34.616 11.742l5.827 6.175-21.75 7.755-5.136-7.867z"/><g fill="#94989b"><path d="M61.05 38.02 39.873 46.625 60.65 37.1z"/><path d="m60.724 40.558l-22.504 9.297 22.1-10.213z"/><path d="M60.932 42.04 32.21 54.45 60.52 41.13z"/></g><path fill="#c94747" d="m22.73 57.17c-3.492-7.318 5.482-8.645 5.482-8.645l-22.978-35.874c0 0-5.234-.143-5.234 5.27 0 2.233 1.019 3.897 1.019 3.897l21.711 35.35"/></svg>

<svg xmlns="http://www.w3.org/2000/svg" width="64" height="64" viewBox="0 0 64 64"><path fill="#962C2C" d="M54.976 35.149l7.527 7.438-33.291 15.79s-4.406 2.016-6.482-1.203c-8.214-12.731 32.246-22.025 32.246-22.025z"/><path fill="#D9E3E8" d="M28.371 49.127s-6.373 2.238-5.205 6.468c1.215 4.393 6.281 1.722 6.281 1.722L61.07 42.588s-1.776-4.664 1.434-7.838L28.371 49.127z"/><path fill="#ED4C5C" d="M33.732 5l30.267 29.523-35.787 14.006L5.234 12.655z"/><path fill="#FFF" d="M34.616 11.742l5.827 6.175-21.75 7.755-5.136-7.867z"/><path fill="#94989B" d="M61.049 38.021l-21.176 8.604 20.779-9.521zM60.724 40.558l-22.502 9.297 22.101-10.213zM60.932 42.044L32.206 54.449l28.315-13.317z"/><path fill="#C94747" d="M22.73 57.174c-3.492-7.318 5.482-8.645 5.482-8.645L5.234 12.655S0 12.512 0 17.925c0 2.233 1.019 3.897 1.019 3.897L22.73 57.174z"/></svg>
